round/svg/snooze.svg

<svg xmlns="http://www.w3.org/2000/svg" width="24" height="24"><g fill="currentColor"><path d="M10 11h2.63l-3.72 4.35C8.36 16 8.82 17 9.67 17H14c.55 0 1-.45 1-1s-.45-1-1-1h-2.63l3.72-4.35c.55-.65.09-1.65-.76-1.65H10c-.55 0-1 .45-1 1s.45 1 1 1zM21.3 6.42c-.35.42-.98.48-1.41.13l-3.07-2.56a1 1 0 0 1-.12-1.41c.35-.42.98-.48 1.41-.13l3.07 2.56a1 1 0 0 1 .12 1.41zM2.7 6.42c.35.43.98.48 1.4.13l3.07-2.56c.43-.36.49-.99.13-1.41a.988.988 0 0 0-1.4-.13L2.82 5.01a1 1 0 0 0-.12 1.41z"/><path d="M12 6c3.86 0 7 3.14 7 7s-3.14 7-7 7-7-3.14-7-7 3.14-7 7-7m0-2a9 9 0 1 0 .001 18.001A9 9 0 0 0 12 4z"/></g></svg>

<?xml version="1.0" encoding="utf-8"?>
<!-- Generator: Adobe Illustrator 19.1.0, SVG Export Plug-In . SVG Version: 6.00 Build 0)  -->
<svg version="1.1" xmlns="http://www.w3.org/2000/svg" xmlns:xlink="http://www.w3.org/1999/xlink" x="0px" y="0px" width="24px"
	 height="24px" viewBox="0 0 24 24" enable-background="new 0 0 24 24" xml:space="preserve">
<g id="Bounding_Boxes" display="none">
	<path display="inline" fill="none" d="M0,0h24v24H0V0z"/>
</g>
<g id="Rounded" fill="currentColor">
	<g>
		<path d="M10,11h2.63l-3.72,4.35C8.36,16,8.82,17,9.67,17H14c0.55,0,1-0.45,1-1v0c0-0.55-0.45-1-1-1h-2.63l3.72-4.35
			C15.64,10,15.18,9,14.33,9H10c-0.55,0-1,0.45-1,1v0C9,10.55,9.45,11,10,11z"/>
		<g>
			<path d="M21.3,6.42L21.3,6.42c-0.35,0.42-0.98,0.48-1.41,0.13l-3.07-2.56C16.4,3.63,16.34,3,16.7,2.58l0,0
				c0.35-0.42,0.98-0.48,1.41-0.13l3.07,2.56C21.6,5.37,21.66,6,21.3,6.42z"/>
			<path d="M2.7,6.42L2.7,6.42C3.05,6.85,3.68,6.9,4.1,6.55l3.07-2.56C7.6,3.63,7.66,3,7.3,2.58l0,0C6.95,2.15,6.32,2.1,5.9,2.45
				L2.82,5.01C2.4,5.37,2.34,6,2.7,6.42z"/>
			<path d="M12,6c3.86,0,7,3.14,7,7s-3.14,7-7,7s-7-3.14-7-7S8.14,6,12,6 M12,4c-4.97,0-9,4.03-9,9s4.03,9,9,9s9-4.03,9-9
				S16.97,4,12,4L12,4z"/>
		</g>
	</g>
</g>
</svg>
